X:409
T: ICH WOLLT EIN STRAEUSSLEIN BINDEN
N: B0482
O: Europa, Mitteleuropa, Deutschland
R: Liebes - Lied, Leid, Klage
M: 6/8
L: 1/16
K: Bb
F2 | F4B2B2A2B2 | =B4c2c4
F2 | B4F2F4E2 | D6z4
F2 | F4B2B2A2B2 | =B6c4
F2 | F4d2c3edc | B6z4

